images/3234898.svg

<?xml version="1.0" encoding="UTF-8"?>
<svg xmlns="http://www.w3.org/2000/svg" xmlns:xlink="http://www.w3.org/1999/xlink" width="300pt" height="300pt" viewBox="0 0 300 300" version="1.1">
<defs>
<g>
<symbol overflow="visible" id="glyph0-0">
<path style="stroke:none;" d="M 0.796875 2.828125 L 0.796875 -11.28125 L 8.796875 -11.28125 L 8.796875 2.828125 Z M 1.703125 1.9375 L 7.90625 1.9375 L 7.90625 -10.390625 L 1.703125 -10.390625 Z M 1.703125 1.9375 "/>
</symbol>
<symbol overflow="visible" id="glyph0-1">
<path style="stroke:none;" d="M 1.578125 -11.671875 L 3.703125 -11.671875 L 8.875 -1.90625 L 8.875 -11.671875 L 10.40625 -11.671875 L 10.40625 0 L 8.28125 0 L 3.109375 -9.765625 L 3.109375 0 L 1.578125 0 Z M 1.578125 -11.671875 "/>
</symbol>
</g>
</defs>
<g id="surface34449">
<rect x="0" y="0" width="300" height="300" style="fill:rgb(100%,100%,100%);fill-opacity:1;stroke:none;"/>
<path style="fill:none;stroke-width:1.2;stroke-linecap:butt;stroke-linejoin:miter;stroke:rgb(0%,0%,0%);stroke-opacity:1;stroke-miterlimit:10;" d="M 116.5 239.40625 L 86.9375 215.132812 "/>
<path style="fill:none;stroke-width:1.2;stroke-linecap:butt;stroke-linejoin:miter;stroke:rgb(0%,0%,0%);stroke-opacity:1;stroke-miterlimit:10;" d="M 119.253906 230.023438 L 95.605469 210.605469 "/>
<path style="fill:none;stroke-width:1.2;stroke-linecap:butt;stroke-linejoin:miter;stroke:rgb(0%,0%,0%);stroke-opacity:1;stroke-miterlimit:10;" d="M 152.300781 225.941406 L 116.5 239.40625 "/>
<path style="fill:none;stroke-width:1.2;stroke-linecap:butt;stroke-linejoin:miter;stroke:rgb(0%,0%,0%);stroke-opacity:1;stroke-miterlimit:10;" d="M 86.9375 215.132812 L 93.175781 177.394531 "/>
<path style="fill:none;stroke-width:1.2;stroke-linecap:butt;stroke-linejoin:miter;stroke:rgb(0%,0%,0%);stroke-opacity:1;stroke-miterlimit:10;" d="M 93.175781 177.394531 L 128.980469 163.929688 "/>
<path style="fill:none;stroke-width:1.2;stroke-linecap:butt;stroke-linejoin:miter;stroke:rgb(0%,0%,0%);stroke-opacity:1;stroke-miterlimit:10;" d="M 99.925781 184.472656 L 128.566406 173.699219 "/>
<path style="fill:none;stroke-width:1.2;stroke-linecap:butt;stroke-linejoin:miter;stroke:rgb(0%,0%,0%);stroke-opacity:1;stroke-miterlimit:10;" d="M 93.175781 177.394531 L 63.617188 153.121094 "/>
<path style="fill:none;stroke-width:1.2;stroke-linecap:butt;stroke-linejoin:miter;stroke:rgb(0%,0%,0%);stroke-opacity:1;stroke-miterlimit:10;" d="M 128.980469 163.929688 L 158.539062 188.203125 "/>
<path style="fill:none;stroke-width:1.2;stroke-linecap:butt;stroke-linejoin:miter;stroke:rgb(0%,0%,0%);stroke-opacity:1;stroke-miterlimit:10;" d="M 158.539062 188.203125 L 152.300781 225.941406 "/>
<path style="fill:none;stroke-width:1.2;stroke-linecap:butt;stroke-linejoin:miter;stroke:rgb(0%,0%,0%);stroke-opacity:1;stroke-miterlimit:10;" d="M 149.035156 190.507812 L 144.042969 220.699219 "/>
<path style="fill:none;stroke-width:1.2;stroke-linecap:butt;stroke-linejoin:miter;stroke:rgb(0%,0%,0%);stroke-opacity:1;stroke-miterlimit:10;" d="M 158.539062 188.203125 L 194.34375 174.738281 "/>
<path style="fill:none;stroke-width:1.2;stroke-linecap:butt;stroke-linejoin:miter;stroke:rgb(0%,0%,0%);stroke-opacity:1;stroke-miterlimit:10;" d="M 194.34375 174.738281 L 223.902344 199.011719 "/>
<path style="fill:none;stroke-width:1.2;stroke-linecap:butt;stroke-linejoin:miter;stroke:rgb(0%,0%,0%);stroke-opacity:1;stroke-miterlimit:10;" d="M 203.007812 170.210938 L 226.660156 189.628906 "/>
<path style="fill:none;stroke-width:1.2;stroke-linecap:butt;stroke-linejoin:miter;stroke:rgb(0%,0%,0%);stroke-opacity:1;stroke-miterlimit:10;" d="M 200.582031 137 L 194.34375 174.738281 "/>
<path style="fill:none;stroke-width:1.2;stroke-linecap:butt;stroke-linejoin:miter;stroke:rgb(0%,0%,0%);stroke-opacity:1;stroke-miterlimit:10;" d="M 223.902344 199.011719 L 241.804688 192.28125 "/>
<path style="fill:none;stroke-width:1.2;stroke-linecap:butt;stroke-linejoin:miter;stroke:rgb(0%,0%,100%);stroke-opacity:1;stroke-miterlimit:10;" d="M 241.804688 192.28125 L 259.707031 185.546875 "/>
<path style="fill:none;stroke-width:1.2;stroke-linecap:butt;stroke-linejoin:miter;stroke:rgb(0%,0%,100%);stroke-opacity:1;stroke-miterlimit:10;" d="M 259.707031 185.546875 L 262.824219 166.679688 "/>
<path style="fill:none;stroke-width:1.2;stroke-linecap:butt;stroke-linejoin:miter;stroke:rgb(0%,0%,0%);stroke-opacity:1;stroke-miterlimit:10;" d="M 262.824219 166.679688 L 265.945312 147.808594 "/>
<path style="fill:none;stroke-width:1.2;stroke-linecap:butt;stroke-linejoin:miter;stroke:rgb(0%,0%,100%);stroke-opacity:1;stroke-miterlimit:10;" d="M 251.449219 180.304688 L 253.945312 165.210938 "/>
<path style="fill:none;stroke-width:1.2;stroke-linecap:butt;stroke-linejoin:miter;stroke:rgb(0%,0%,0%);stroke-opacity:1;stroke-miterlimit:10;" d="M 253.945312 165.210938 L 256.441406 150.113281 "/>
<path style=" stroke:none;fill-rule:nonzero;fill:rgb(100%,100%,100%);fill-opacity:1;" d="M 253.707031 176.046875 L 265.707031 176.046875 L 265.707031 195.046875 L 253.707031 195.046875 Z M 253.707031 176.046875 "/>
<g style="fill:rgb(0%,0%,100%);fill-opacity:1;">
  <use xlink:href="#glyph0-1" x="253.707031" y="190.898438"/>
</g>
<path style="fill:none;stroke-width:1.2;stroke-linecap:butt;stroke-linejoin:miter;stroke:rgb(0%,0%,0%);stroke-opacity:1;stroke-miterlimit:10;" d="M 265.945312 147.808594 L 251.164062 135.671875 "/>
<path style="fill:none;stroke-width:1.2;stroke-linecap:butt;stroke-linejoin:miter;stroke:rgb(0%,0%,100%);stroke-opacity:1;stroke-miterlimit:10;" d="M 251.164062 135.671875 L 236.382812 123.535156 "/>
<path style="fill:none;stroke-width:1.2;stroke-linecap:butt;stroke-linejoin:miter;stroke:rgb(0%,0%,100%);stroke-opacity:1;stroke-miterlimit:10;" d="M 236.382812 123.535156 L 218.484375 130.269531 "/>
<path style="fill:none;stroke-width:1.2;stroke-linecap:butt;stroke-linejoin:miter;stroke:rgb(0%,0%,0%);stroke-opacity:1;stroke-miterlimit:10;" d="M 218.484375 130.269531 L 200.582031 137 "/>
<path style="fill:none;stroke-width:1.2;stroke-linecap:butt;stroke-linejoin:miter;stroke:rgb(0%,0%,100%);stroke-opacity:1;stroke-miterlimit:10;" d="M 235.972656 133.308594 L 221.652344 138.691406 "/>
<path style="fill:none;stroke-width:1.2;stroke-linecap:butt;stroke-linejoin:miter;stroke:rgb(0%,0%,0%);stroke-opacity:1;stroke-miterlimit:10;" d="M 221.652344 138.691406 L 207.332031 144.078125 "/>
<path style=" stroke:none;fill-rule:nonzero;fill:rgb(100%,100%,100%);fill-opacity:1;" d="M 230.382812 114.035156 L 242.382812 114.035156 L 242.382812 133.035156 L 230.382812 133.035156 Z M 230.382812 114.035156 "/>
<g style="fill:rgb(0%,0%,100%);fill-opacity:1;">
  <use xlink:href="#glyph0-1" x="230.382812" y="128.886719"/>
</g>
<path style="fill:none;stroke-width:1.2;stroke-linecap:butt;stroke-linejoin:miter;stroke:rgb(0%,0%,0%);stroke-opacity:1;stroke-miterlimit:10;" d="M 200.582031 137 L 185.800781 124.863281 "/>
<path style="fill:none;stroke-width:1.2;stroke-linecap:butt;stroke-linejoin:miter;stroke:rgb(0%,0%,100%);stroke-opacity:1;stroke-miterlimit:10;" d="M 185.800781 124.863281 L 171.019531 112.726562 "/>
<path style="fill:none;stroke-width:1.2;stroke-linecap:butt;stroke-linejoin:miter;stroke:rgb(0%,0%,100%);stroke-opacity:1;stroke-miterlimit:10;" d="M 171.019531 112.726562 L 152.515625 117.550781 "/>
<path style="fill:none;stroke-width:1.2;stroke-linecap:butt;stroke-linejoin:miter;stroke:rgb(0%,0%,0%);stroke-opacity:1;stroke-miterlimit:10;" d="M 152.515625 117.550781 L 134.007812 122.375 "/>
<path style="fill:none;stroke-width:1.2;stroke-linecap:butt;stroke-linejoin:miter;stroke:rgb(0%,0%,0%);stroke-opacity:1;stroke-miterlimit:10;" d="M 173.28125 74.546875 L 172.152344 93.636719 "/>
<path style="fill:none;stroke-width:1.2;stroke-linecap:butt;stroke-linejoin:miter;stroke:rgb(0%,0%,100%);stroke-opacity:1;stroke-miterlimit:10;" d="M 172.152344 93.636719 L 171.019531 112.726562 "/>
<path style=" stroke:none;fill-rule:nonzero;fill:rgb(100%,100%,100%);fill-opacity:1;" d="M 165.019531 103.226562 L 177.019531 103.226562 L 177.019531 122.226562 L 165.019531 122.226562 Z M 165.019531 103.226562 "/>
<g style="fill:rgb(0%,0%,100%);fill-opacity:1;">
  <use xlink:href="#glyph0-1" x="165.019531" y="118.078125"/>
</g>
<path style="fill:none;stroke-width:1.2;stroke-linecap:butt;stroke-linejoin:miter;stroke:rgb(0%,0%,0%);stroke-opacity:1;stroke-miterlimit:10;" d="M 134.007812 122.375 L 113.394531 90.15625 "/>
<path style="fill:none;stroke-width:1.2;stroke-linecap:butt;stroke-linejoin:miter;stroke:rgb(0%,0%,0%);stroke-opacity:1;stroke-miterlimit:10;" d="M 139.527344 114.304688 L 123.035156 88.527344 "/>
<path style="fill:none;stroke-width:1.2;stroke-linecap:butt;stroke-linejoin:miter;stroke:rgb(0%,0%,0%);stroke-opacity:1;stroke-miterlimit:10;" d="M 113.394531 90.15625 L 125.53125 75.375 "/>
<path style="fill:none;stroke-width:1.2;stroke-linecap:butt;stroke-linejoin:miter;stroke:rgb(0%,0%,100%);stroke-opacity:1;stroke-miterlimit:10;" d="M 125.53125 75.375 L 137.667969 60.59375 "/>
<path style="fill:none;stroke-width:1.2;stroke-linecap:butt;stroke-linejoin:miter;stroke:rgb(0%,0%,100%);stroke-opacity:1;stroke-miterlimit:10;" d="M 137.667969 60.59375 L 155.476562 67.570312 "/>
<path style="fill:none;stroke-width:1.2;stroke-linecap:butt;stroke-linejoin:miter;stroke:rgb(0%,0%,0%);stroke-opacity:1;stroke-miterlimit:10;" d="M 155.476562 67.570312 L 173.28125 74.546875 "/>
<path style="fill:none;stroke-width:1.2;stroke-linecap:butt;stroke-linejoin:miter;stroke:rgb(0%,0%,100%);stroke-opacity:1;stroke-miterlimit:10;" d="M 137.945312 70.371094 L 152.191406 75.949219 "/>
<path style="fill:none;stroke-width:1.2;stroke-linecap:butt;stroke-linejoin:miter;stroke:rgb(0%,0%,0%);stroke-opacity:1;stroke-miterlimit:10;" d="M 152.191406 75.949219 L 166.4375 81.53125 "/>
<path style=" stroke:none;fill-rule:nonzero;fill:rgb(100%,100%,100%);fill-opacity:1;" d="M 131.667969 51.09375 L 143.667969 51.09375 L 143.667969 70.09375 L 131.667969 70.09375 Z M 131.667969 51.09375 "/>
<g style="fill:rgb(0%,0%,100%);fill-opacity:1;">
  <use xlink:href="#glyph0-1" x="131.667969" y="65.945312"/>
</g>
<path style="fill:none;stroke-width:1.2;stroke-linecap:butt;stroke-linejoin:miter;stroke:rgb(0%,0%,0%);stroke-opacity:1;stroke-miterlimit:10;" d="M 63.617188 153.121094 L 48.835938 140.984375 "/>
<path style="fill:none;stroke-width:1.2;stroke-linecap:butt;stroke-linejoin:miter;stroke:rgb(0%,0%,100%);stroke-opacity:1;stroke-miterlimit:10;" d="M 48.835938 140.984375 L 34.054688 128.847656 "/>
<path style="fill:none;stroke-width:1.2;stroke-linecap:butt;stroke-linejoin:miter;stroke:rgb(0%,0%,0%);stroke-opacity:1;stroke-miterlimit:10;" d="M 66.371094 143.738281 L 54.546875 134.027344 "/>
<path style="fill:none;stroke-width:1.2;stroke-linecap:butt;stroke-linejoin:miter;stroke:rgb(0%,0%,100%);stroke-opacity:1;stroke-miterlimit:10;" d="M 54.546875 134.027344 L 42.722656 124.320312 "/>
<path style="fill:none;stroke-width:1.2;stroke-linecap:butt;stroke-linejoin:miter;stroke:rgb(0%,0%,0%);stroke-opacity:1;stroke-miterlimit:10;" d="M 54.949219 157.648438 L 43.125 147.941406 "/>
<path style="fill:none;stroke-width:1.2;stroke-linecap:butt;stroke-linejoin:miter;stroke:rgb(0%,0%,100%);stroke-opacity:1;stroke-miterlimit:10;" d="M 43.125 147.941406 L 31.300781 138.230469 "/>
<path style=" stroke:none;fill-rule:nonzero;fill:rgb(100%,100%,100%);fill-opacity:1;" d="M 22.054688 119.347656 L 34.054688 119.347656 L 34.054688 138.347656 L 22.054688 138.347656 Z M 22.054688 119.347656 "/>
<g style="fill:rgb(0%,0%,100%);fill-opacity:1;">
  <use xlink:href="#glyph0-1" x="22.054688" y="134.199219"/>
</g>
</g>
</svg>

<svg xmlns="http://www.w3.org/2000/svg" xmlns:xlink="http://www.w3.org/1999/xlink" width="300pt" height="300pt" viewBox="0 0 300 300"><defs><symbol overflow="visible"><path d="M.797 2.828v-14.11h8V2.83zm.906-.89h6.203v-12.33H1.703zm0 0"/></symbol><symbol overflow="visible" id="a"><path d="M1.578-11.672h2.125l5.172 9.766v-9.766h1.53V0H8.282L3.11-9.766V0H1.577zm0 0"/></symbol></defs><g><path fill="#fff" d="M0 0h300v300H0z"/><path d="M116.5 239.406l-29.563-24.273M119.254 230.023l-23.65-19.418M152.3 225.94l-35.8 13.466M86.938 215.133l6.238-37.738M93.176 177.395l35.804-13.465M99.926 184.473l28.64-10.774M93.176 177.395l-29.56-24.274M128.98 163.93l29.56 24.273M158.54 188.203l-6.24 37.738M149.035 190.508l-4.992 30.19M158.54 188.203l35.804-13.465M194.344 174.738l29.558 24.274M203.008 170.21l23.652 19.42M200.582 137l-6.238 37.738M223.902 199.012l17.903-6.73" stroke-width="1.2" stroke="#000" stroke-miterlimit="10" fill="none"/><path d="M241.805 192.28l17.902-6.733M259.707 185.547l3.117-18.867" stroke-width="1.2" stroke="#00f" stroke-miterlimit="10" fill="none"/><path d="M262.824 166.68l3.12-18.87" stroke-width="1.2" stroke="#000" stroke-miterlimit="10" fill="none"/><path d="M251.45 180.305l2.495-15.094" stroke-width="1.2" stroke="#00f" stroke-miterlimit="10" fill="none"/><path d="M253.945 165.21l2.496-15.097" stroke-width="1.2" stroke="#000" stroke-miterlimit="10" fill="none"/><path d="M253.707 176.047h12v19h-12zm0 0" fill="#fff"/><use xlink:href="#a" x="253.707" y="190.898" fill="#00f"/><path d="M265.945 147.81l-14.78-12.138" stroke-width="1.2" stroke="#000" stroke-miterlimit="10" fill="none"/><path d="M251.164 135.672l-14.78-12.137M236.383 123.535l-17.9 6.735" stroke-width="1.2" stroke="#00f" stroke-miterlimit="10" fill="none"/><path d="M218.484 130.27L200.582 137" stroke-width="1.2" stroke="#000" stroke-miterlimit="10" fill="none"/><path d="M235.973 133.31l-14.32 5.38" stroke-width="1.2" stroke="#00f" stroke-miterlimit="10" fill="none"/><path d="M221.652 138.69l-14.32 5.388" stroke-width="1.2" stroke="#000" stroke-miterlimit="10" fill="none"/><path d="M230.383 114.035h12v19h-12zm0 0" fill="#fff"/><use xlink:href="#a" x="230.383" y="128.887" fill="#00f"/><path d="M200.582 137l-14.78-12.137" stroke-width="1.2" stroke="#000" stroke-miterlimit="10" fill="none"/><path d="M185.8 124.863l-14.78-12.136M171.02 112.727l-18.504 4.824" stroke-width="1.2" stroke="#00f" stroke-miterlimit="10" fill="none"/><path d="M152.516 117.55l-18.508 4.825M173.28 74.547l-1.128 19.09" stroke-width="1.2" stroke="#000" stroke-miterlimit="10" fill="none"/><path d="M172.152 93.637l-1.132 19.09" stroke-width="1.2" stroke="#00f" stroke-miterlimit="10" fill="none"/><path d="M165.02 103.227h12v19h-12zm0 0" fill="#fff"/><use xlink:href="#a" x="165.02" y="118.078" fill="#00f"/><path d="M134.008 122.375l-20.613-32.22M139.527 114.305l-16.492-25.778M113.395 90.156l12.136-14.78" stroke-width="1.2" stroke="#000" stroke-miterlimit="10" fill="none"/><path d="M125.53 75.375l12.138-14.78M137.668 60.594l17.81 6.976" stroke-width="1.2" stroke="#00f" stroke-miterlimit="10" fill="none"/><path d="M155.477 67.57l17.804 6.977" stroke-width="1.2" stroke="#000" stroke-miterlimit="10" fill="none"/><path d="M137.945 70.37l14.246 5.58" stroke-width="1.2" stroke="#00f" stroke-miterlimit="10" fill="none"/><path d="M152.19 75.95l14.248 5.58" stroke-width="1.2" stroke="#000" stroke-miterlimit="10" fill="none"/><path d="M131.668 51.094h12v19h-12zm0 0" fill="#fff"/><use xlink:href="#a" x="131.668" y="65.945" fill="#00f"/><path d="M63.617 153.12l-14.78-12.136" stroke-width="1.2" stroke="#000" stroke-miterlimit="10" fill="none"/><path d="M48.836 140.984l-14.78-12.136" stroke-width="1.2" stroke="#00f" stroke-miterlimit="10" fill="none"/><path d="M66.37 143.738l-11.823-9.71" stroke-width="1.2" stroke="#000" stroke-miterlimit="10" fill="none"/><path d="M54.547 134.027l-11.824-9.707" stroke-width="1.2" stroke="#00f" stroke-miterlimit="10" fill="none"/><path d="M54.95 157.648l-11.825-9.707" stroke-width="1.2" stroke="#000" stroke-miterlimit="10" fill="none"/><path d="M43.125 147.94L31.3 138.23" stroke-width="1.2" stroke="#00f" stroke-miterlimit="10" fill="none"/><path d="M22.055 119.348h12v19h-12zm0 0" fill="#fff"/><use xlink:href="#a" x="22.055" y="134.199" fill="#00f"/></g></svg>
